X:389
T:Miss Mariane Oliphant
C:Robert Macintosh
B:Gatherer's Musical Museum (1985)
Z:Nigel Gatherer
M:4/4
L:1/8
K:G
D|G,>B, D>=F E>C CB,/C/|D>F A>c B<G GF/G/|G,>B, D>=F E<C c>e|
dc/B/ cB/A/ G2 G:||g/a/|b<g g>b a<d f<a|g>f a/g/f/e/ f<B Bc/d/|
c>e g>c B>d g>B|A>e d<F G2 G g/a/|ba/g/ ga/b/ a<d f>a|
g>f a/g/f/e/ f<B B>d|c>c' a>c B>d g>B|A<a d>f g2 G|]
<end>
<start>
